X: 0732
T: BYNG'S STRATHSPEY
B: Oliver Ditson "The Boston Collection of Instrumental Music" 1910 p.73 #2
F: http://conquest.imslp.info/files/imglnks/usimg/8/8f/IMSLP175643-PMLP309456-bostoncollection00bost_bw.pdf
M: 4/4
L: 1/8
K: D
d |\
d/c/B/A/ {c}d>A FDDF | GE {E}e>d cAA{c}d |\
d/c/B/A/ {c}d>A FDDF | G>E{E}A>F D3 :|
G |\
F>DA>D FD~D>F | GEB>E GE~E>G |\
FDA>D FDDF | {F}G<E {E}A>F D3 ||
G |\
FD A>D FD~D>F | GE B>E GEE>G |\
F>DA>F B>GA>F | {F}G>EA>F D3 |]

%%sep 1 1 500
%%sep 1 1 500
